img/stair.svg

<svg width="48" height="48" fill="none" xmlns="http://www.w3.org/2000/svg"><g clip-path="url(#clip0)"><path d="M46.967 25.747C50.602 12.625 44.314 0 33.295 0c-6.097 0-8.7 3.504-15.397 11.663C11.2 19.822 1.65 8.478 0 25.747 1.386 41.66 18.652 56.064 26.668 42.774c7.298-12.1 16.665-3.906 20.3-17.027h-.001z" fill="#E6F1F9"/><path d="M13 12h2v23h-2V12zm20 0h2v23h-2V12z" fill="#036FC7"/><path d="M12 34h4v2h-4v-2zm20 0h4v2h-4v-2zM13 14h22v2H13v-2zm0 15h21v2H13v-2z" fill="#036FC7"/><path d="M14 16l20 13m-20 0l20-13-20 13z" stroke="#036FC7" stroke-width="2" stroke-linejoin="bevel"/></g><defs><clipPath id="clip0"><path fill="#fff" d="M0 0h48v48H0z"/></clipPath></defs></svg>

<svg width="48" height="48" viewBox="0 0 48 48" fill="none" xmlns="http://www.w3.org/2000/svg">
<g clip-path="url(#clip0)">
<path d="M46.967 25.747C50.602 12.625 44.314 0 33.295 0C27.198 0 24.595 3.504 17.898 11.663C11.2 19.822 1.65 8.478 0 25.747C1.386 41.66 18.652 56.064 26.668 42.774C33.966 30.674 43.333 38.868 46.968 25.747H46.967Z" fill="#E6F1F9"/>
<path d="M13 12H15V35H13V12ZM33 12H35V35H33V12Z" fill="#036FC7"/>
<path d="M12 34H16V36H12V34ZM32 34H36V36H32V34ZM13 14H35V16H13V14ZM13 29H34V31H13V29Z" fill="#036FC7"/>
<path d="M14 16L34 29M14 29L34 16L14 29Z" stroke="#036FC7" stroke-width="2" stroke-linejoin="bevel"/>
</g>
<defs>
<clipPath id="clip0">
<rect width="48" height="48" fill="white"/>
</clipPath>
</defs>
</svg>
